wp-content/themes/KOOEN/assets/img/common/headline_bg.svg

<svg fill="none" height="298" viewBox="0 0 649 298" width="649" xmlns="http://www.w3.org/2000/svg" xmlns:xlink="http://www.w3.org/1999/xlink"><linearGradient id="a" gradientUnits="userSpaceOnUse" x1=".02293" x2="649.075" y1="148.936" y2="148.936"><stop offset="0" stop-color="#00a99d"/><stop offset=".00000009653" stop-color="#00a99d"/><stop offset=".9996" stop-color="#00d47f"/><stop offset="1" stop-color="#00d47f"/></linearGradient><path d="m116.97 233.365c-11.51-4.642-22.2164-11.606-31.5847-20.98s-16.3276-20.176-20.9671-31.603c-3.5689-8.749-5.7102-18.034-6.5132-27.408-.2677-2.946-.2677-5.892 0-8.838.803-9.374 2.9443-18.569 6.5132-27.407 4.6395-11.517 11.5988-22.2297 20.9671-31.6035 9.3683-9.3739 20.1637-16.3374 31.5847-20.9797 11.51-4.6423 23.733-6.9634 35.956-6.9634 12.224 0 24.536 2.3211 35.957 6.9634 11.509 4.6423 22.216 11.6058 31.584 20.9797l63.348 63.3855-63.348 63.385c-9.368 9.374-20.164 16.337-31.584 20.98-11.51 4.642-23.733 6.963-35.957 6.963-12.223 0-24.446-2.232-35.956-6.874zm343.147 0c-11.509-4.642-22.216-11.606-31.584-20.98l-63.348-63.385 63.348-63.3853c9.368-9.3738 20.164-16.3373 31.584-20.9796 11.51-4.6423 23.733-6.9634 35.957-6.9634 12.223 0 24.536 2.3211 35.956 6.9634 11.51 4.6423 22.216 11.6058 31.585 20.9796 9.368 9.3739 16.327 20.1763 20.967 31.6033.714 1.696 1.338 3.393 1.874 5.089 5.799 17.23 5.799 36.067 0 53.297-.536 1.696-1.25 3.482-1.874 5.089-4.64 11.516-11.599 22.229-20.967 31.603-9.369 9.374-20.164 16.337-31.585 20.98-11.509 4.642-23.733 6.963-35.956 6.963-12.224.179-24.447-2.232-35.957-6.874zm-21.591-222.1163c-18.469 7.4991-35.778 18.7477-50.678 33.6566l-63.348 63.3857-63.348-63.3857c-14.9-14.9089-32.209-26.1575-50.678-33.6566-18.469-7.49915-38.008-11.2487-57.548-11.2487-19.539 0-39.168 3.74955-57.5478 11.2487-18.4689 7.4991-35.778 18.7477-50.678 33.6566-14.9001 14.909-26.1421 32.2283-33.6367 50.7082-5.3533 13.3025-11.0635 28.5685-11.0635 53.3865 0 24.283 5.79942 40.263 11.0635 53.386 7.4946 18.48 18.7366 35.8 33.6367 50.709 14.9 14.909 32.2091 26.157 50.678 33.656 18.4688 7.499 38.0088 11.249 57.5478 11.249 19.54 0 39.169-3.75 57.548-11.249 18.469-7.499 35.778-18.747 50.678-33.656l63.348-63.386 63.348 63.386c14.9 14.909 32.209 26.157 50.678 33.656 18.468 7.499 38.008 11.249 57.548 11.249 19.539 0 39.168-3.75 57.548-11.249 18.469-7.499 35.778-18.747 50.678-33.656s26.142-32.229 33.636-50.709c4.908-12.141 11.064-32.674 11.064-53.386 0-21.069-6.513-42.049-11.064-53.3865-7.494-18.4799-18.736-35.7992-33.636-50.7082-14.9-14.9089-32.209-26.1575-50.678-33.6566-18.38-7.49915-37.92-11.159425-57.459-11.159425-19.54 0-39.169 3.660275-57.637 11.159425z" fill="url(#a)" opacity=".1"/></svg>

<svg width="649" height="298" viewBox="0 0 649 298" fill="none" xmlns="http://www.w3.org/2000/svg">
<g opacity="0.1">
<path d="M116.97 233.365C105.46 228.723 94.7536 221.759 85.3853 212.385C76.017 203.011 69.0577 192.209 64.4182 180.782C60.8493 172.033 58.708 162.748 57.905 153.374C57.6373 150.428 57.6373 147.482 57.905 144.536C58.708 135.162 60.8493 125.967 64.4182 117.129C69.0577 105.612 76.017 94.8993 85.3853 85.5255C94.7536 76.1516 105.549 69.1881 116.97 64.5458C128.48 59.9035 140.703 57.5824 152.926 57.5824C165.15 57.5824 177.462 59.9035 188.883 64.5458C200.392 69.1881 211.099 76.1516 220.467 85.5255L283.815 148.911L220.467 212.296C211.099 221.67 200.303 228.633 188.883 233.276C177.373 237.918 165.15 240.239 152.926 240.239C140.703 240.239 128.48 238.007 116.97 233.365ZM460.117 233.365C448.608 228.723 437.901 221.759 428.533 212.385L365.185 149L428.533 85.6147C437.901 76.2409 448.697 69.2774 460.117 64.6351C471.627 59.9928 483.85 57.6717 496.074 57.6717C508.297 57.6717 520.61 59.9928 532.03 64.6351C543.54 69.2774 554.246 76.2409 563.615 85.6147C572.983 94.9886 579.942 105.791 584.582 117.218C585.296 118.914 585.92 120.611 586.456 122.307C592.255 139.537 592.255 158.374 586.456 175.604C585.92 177.3 585.206 179.086 584.582 180.693C579.942 192.209 572.983 202.922 563.615 212.296C554.246 221.67 543.451 228.633 532.03 233.276C520.521 237.918 508.297 240.239 496.074 240.239C483.85 240.418 471.627 238.007 460.117 233.365ZM438.526 11.2487C420.057 18.7478 402.748 29.9964 387.848 44.9053L324.5 108.291L261.152 44.9053C246.252 29.9964 228.943 18.7478 210.474 11.2487C192.005 3.74955 172.466 0 152.926 0C133.387 0 113.758 3.74955 95.3782 11.2487C76.9093 18.7478 59.6002 29.9964 44.7002 44.9053C29.8001 59.8143 18.5581 77.1336 11.0635 95.6135C5.7102 108.916 0 124.182 0 149C0 173.283 5.79942 189.263 11.0635 202.386C18.5581 220.866 29.8001 238.186 44.7002 253.095C59.6002 268.004 76.9093 279.252 95.3782 286.751C113.847 294.25 133.387 298 152.926 298C172.466 298 192.095 294.25 210.474 286.751C228.943 279.252 246.252 268.004 261.152 253.095L324.5 189.709L387.848 253.095C402.748 268.004 420.057 279.252 438.526 286.751C456.994 294.25 476.534 298 496.074 298C515.613 298 535.242 294.25 553.622 286.751C572.091 279.252 589.4 268.004 604.3 253.095C619.2 238.186 630.442 220.866 637.936 202.386C642.844 190.245 649 169.712 649 149C649 127.931 642.487 106.951 637.936 95.6135C630.442 77.1336 619.2 59.8143 604.3 44.9053C589.4 29.9964 572.091 18.7478 553.622 11.2487C535.242 3.74955 515.702 0.089275 496.163 0.089275C476.623 0.089275 456.994 3.74955 438.526 11.2487Z" fill="url(#paint0_linear)"/>
</g>
<defs>
<linearGradient id="paint0_linear" x1="0.02293" y1="148.936" x2="649.075" y2="148.936" gradientUnits="userSpaceOnUse">
<stop stop-color="#00A99D"/>
<stop offset="9.65257e-08" stop-color="#00A99D"/>
<stop offset="0.9996" stop-color="#00D47F"/>
<stop offset="1" stop-color="#00D47F"/>
</linearGradient>
</defs>
</svg>
